frontend/public/assets/material-icons/folder-test.svg

<svg xmlns="http://www.w3.org/2000/svg" viewBox="0 0 32 32"><path fill="#00bfa5" d="m13.844 7.536-1.288-1.072A2 2 0 0 0 11.276 6H4a2 2 0 0 0-2 2v16a2 2 0 0 0 2 2h24a2 2 0 0 0 2-2V10a2 2 0 0 0-2-2H15.124a2 2 0 0 1-1.28-.464"/><path fill="#a7ffeb" d="M16 12v2h2v12a4 4 0 0 0 8 0V14h2v-2Zm5 14a1 1 0 1 1 1-1 1 1 0 0 1-1 1m2-4a1 1 0 1 1 1-1 1 1 0 0 1-1 1m1-4h-4v-4h4Z"/></svg>

<svg xmlns="http://www.w3.org/2000/svg" viewBox="0 0 32 32">
  <path d="M13.84376,7.53645l-1.28749-1.0729A2,2,0,0,0,11.27591,6H4A2,2,0,0,0,2,8V24a2,2,0,0,0,2,2H28a2,2,0,0,0,2-2V10a2,2,0,0,0-2-2H15.12412A2,2,0,0,1,13.84376,7.53645Z" style="fill: #00bfa5"/>
  <path d="M16,12v2h2V26a4,4,0,0,0,8,0V14h2V12Zm5,14a1,1,0,1,1,1-1A1,1,0,0,1,21,26Zm2-4a1,1,0,1,1,1-1A1,1,0,0,1,23,22Zm1-4H20V14h4Z" style="fill: #a7ffeb"/>
</svg>
